X: 13847
T: Four Whiskies In One Hour
R: mazurka
M: 3/4
K: Gmajor
|:G|d^c =cB _BA|G2 BD G2|F2 Af =fe|d2 gB d2|
d^c =cB _BA|G2 BD G2|F2 Ad ef|e=f ^fg- g:|
|:G|FE D_E =EF|G2 DB G2|F2 Ac- ce|dB GD- DG|
FE D_E =EF|G2 DB G2|F2 Ad ef|e=f ^fg- g:|

